img/message.svg

<svg width="22" height="24" viewBox="0 0 22 24" fill="none" xmlns="http://www.w3.org/2000/svg">
<path d="M19.4118 2.52607H2.58824V17.6825H6.47059C7.18531 17.6825 7.76471 18.248 7.76471 18.9456V20.2086L10.8706 17.9351C11.0946 17.7712 11.3671 17.6825 11.6471 17.6825H19.4118V2.52607ZM5.17647 20.2086H1.29412C0.579396 20.2086 0 19.6431 0 18.9456V1.26304C0 0.565481 0.579396 0 1.29412 0H20.7059C21.4206 0 22 0.565481 22 1.26304V18.9456C22 19.6431 21.4206 20.2086 20.7059 20.2086H12.0784L7.24706 23.7451C6.39393 24.3696 5.17647 23.7755 5.17647 22.7347V20.2086ZM5.17647 13.8934V11.3673H16.8235V13.8934H5.17647ZM5.17647 8.84126V6.31519H16.8235V8.84126H5.17647Z" fill="#2B2D33"/>
</svg>

<svg width="22" height="24" fill="none" xmlns="http://www.w3.org/2000/svg"><path d="M19.412 2.526H2.588v15.157h3.883c.714 0 1.294.565 1.294 1.263v1.263l3.106-2.274c.224-.164.496-.252.776-.252h7.765V2.526zM5.176 20.21H1.294C.58 20.209 0 19.643 0 18.946V1.263C0 .565.58 0 1.294 0h19.412C21.42 0 22 .565 22 1.263v17.683c0 .697-.58 1.263-1.294 1.263h-8.628l-4.83 3.536c-.854.625-2.072.03-2.072-1.01v-2.526zm0-6.316v-2.526h11.647v2.526H5.176zm0-5.052V6.315h11.647v2.526H5.176z" fill="#2B2D33"/></svg>
